X: 6
T:Gran Cuntradanza
M:4/4
L:1/4
R:Polka
O:trad. Piedmontese, via La Ciapa Rusa
D:La Ciapa Rusa : Aji et Safran (1994)
N:Posted to eceilidh 29/11/2000
N: Yes the title really is spelt that way, why do you ask? <g>
Z:Steve Mansfield 30/3/2000
K:G
dd d/e/d/c/ | BB B/c/B/A/ | Gg/f/ e/d/c/B/ |AA A A/B/ | cc c/d/c/B/ |
AA A/B/A/G/ |FD EF | G/A/B/A/ GG::
g>d BG | F/G/A/B/ cc | BA GF | G/A/B/c/ dd | g/f/e/d/ c/B/A/G/ |
F/G/A/B/ ce | e/d/c/B/ d/c/B/A/ | GB G2:|
<end>
<start>
